;generated by ffslicer 1.30.2 03/05/23 20:53:04
;right_extruder_material: PLA
;layer_height: 0.18
;perimeter_shells: 2
;top_solid_layers: 4
;bottom_solid_layers: 3
;fill_density: 30%
;fill_pattern: hexagon
;base_print_speed: 50
;travel_speed: 80
;right_extruder_temperature: 200
;left_extruder_temperature: 0
;platform_temperature: 65
;right_extruder_temperature_raft0: 0
;left_extruder_temperature_raft0: 0
;right_extruder_temperature_reset: 
;left_extruder_temperature_reset: 
;start gcode
M140 S65 T0
M104 S200 T0
M104 S0 T1
G90
G28
M190 S65 T0
M109 S200 T0
M109 S0 T1
G92 E.0000
;layer_count: 91
M108 T0
G1 X143.84 Y66.75 F4800
;preExtrude:0.20
;preExtruder0
M106 S255
G1 Z.200 F420
G1 X143.84 Y66.75 F4800
G1 X182.53 Y66.75 E5.3018 F1200
G1 X186.49 Y68.03 E5.8720
G1 X189.35 Y71.95 E6.5370
G1 X189.76 Y74.59 E6.9031
G1 X190.53 Y144.21 E16.4438
;raft
;layer:0.28
;support-start
;line-support
G1 E11.4438 F2700
G1 Z.280 F420
G1 X182.33 Y145.54 F4200
G1 E16.4438 F2700
;extrude_ratio:1.16505
G1 X182.33 Y145.54 F4200
G1 X182.00 Y145.54 E16.4623 F600
G1 X182.14 Y145.41 E16.4729
G1 X182.30 Y145.11 E16.4919
G1 X182.33 Y144.94 E16.5016
;support-end
;shell
;extrude_ratio:1
G1 E11.5016 F2700
G1 X38.83 Y75.35 F4200
G1 E16.5016 F2700
G1 X38.83 Y75.35 F4200
G1 X181.17 Y75.35 E23.3284 F600
G1 X181.17 Y144.65 E26.6521
G1 X38.83 Y144.65 E33.4789
G1 X38.83 Y75.35 E36.8026
G1 X38.43 Y75.28 F4200
G1 X38.50 Y75.08 E36.8127 F600
G1 X38.76 Y74.95 E36.8267
G1 X181.23 Y74.95 E43.6597
G1 X181.43 Y75.01 E43.6697
G1 X181.57 Y75.27 E43.6839
G1 X181.57 Y144.72 E47.0148
G1 X181.50 Y144.92 E47.0249
G1 X181.25 Y145.05 E47.0384
G1 X38.77 Y145.05 E53.8719
G1 X38.56 Y144.99 E53.8824
G1 X38.43 Y144.73 E53.8964
G1 X38.43 Y75.28 E57.2273
;infill
G1 X39.17 Y144.30 F4200
G1 X39.17 Y144.30
G1 X39.75 Y144.31 E57.2551 F600
G1 X39.17 Y143.74 E57.2941
G1 X39.17 Y143.17 E57.3214
G1 X40.31 Y144.31 E57.3987
G1 X40.88 Y144.31 E57.4261
G1 X39.17 Y142.61 E57.5417
G1 X39.17 Y142.04 E57.5691
G1 X41.44 Y144.31 E57.7230
G1 X42.01 Y144.31 E57.7504
G1 X39.17 Y141.48 E57.9427
G1 X39.17 Y140.91 E57.9700
G1 X42.57 Y144.31 E58.2006
G1 X43.14 Y144.31 E58.2279
G1 X39.17 Y140.35 E58.4969
G1 X39.17 Y139.78 E58.5242
G1 X43.71 Y144.31 E58.8318
G1 X44.27 Y144.31 E58.8587
G1 X39.17 Y139.21 E59.2046
G1 X39.17 Y138.65 E59.2314
G1 X44.84 Y144.31 E59.6157
G1 X45.40 Y144.31 E59.6426
G1 X39.17 Y138.08 E60.0651
G1 X39.17 Y137.52 E60.0920
G1 X45.97 Y144.31 E60.5529
G1 X46.53 Y144.31 E60.5797
G1 X39.17 Y136.95 E61.0789
G1 X39.17 Y136.39 E61.1058
G1 X47.10 Y144.31 E61.6433
G1 X47.67 Y144.31 E61.6706
G1 X39.17 Y135.82 E62.2468
G1 X39.17 Y135.25 E62.2742
G1 X48.23 Y144.31 E62.8887
G1 X48.80 Y144.31 E62.9160
G1 X39.17 Y134.69 E63.5689
G1 X39.17 Y134.12 E63.5962
G1 X49.36 Y144.31 E64.2874
G1 X49.93 Y144.31 E64.3147
G1 X39.17 Y133.56 E65.0442
G1 X39.17 Y132.99 E65.0715
G1 X50.49 Y144.31 E65.8393
G1 X51.06 Y144.31 E65.8666
G1 X39.17 Y132.43 E66.6728
G1 X39.17 Y131.86 E66.7001
G1 X51.63 Y144.31 E67.5449
G1 X52.19 Y144.31 E67.5718
G1 X39.17 Y131.29 E68.4549
G1 X39.17 Y130.73 E68.4817
G1 X52.76 Y144.31 E69.4032
G1 X53.32 Y144.31 E69.4300
G1 X39.17 Y130.16 E70.3898
G1 X39.17 Y129.60 E70.4166
G1 X53.89 Y144.31 E71.4147
G1 X54.45 Y144.31 E71.4416
G1 X39.17 Y129.03 E72.4780
G1 X39.17 Y128.47 E72.5048
G1 X55.02 Y144.31 E73.5796
G1 X55.58 Y144.31 E73.6064
G1 X39.17 Y127.90 E74.7195
G1 X39.17 Y127.34 E74.7463
G1 X56.15 Y144.31 E75.8977
G1 X56.72 Y144.31 E75.9250
G1 X39.17 Y126.77 E77.1151
G1 X39.17 Y126.20 E77.1424
G1 X57.28 Y144.31 E78.3707
G1 X57.85 Y144.31 E78.3981
G1 X39.17 Y125.64 E79.6648
G1 X39.17 Y125.07 E79.6921
G1 X58.41 Y144.31 E80.9971
G1 X58.98 Y144.31 E81.0244
G1 X39.17 Y124.51 E82.3677
G1 X39.17 Y123.94 E82.3951
G1 X59.54 Y144.31 E83.7767
G1 X60.11 Y144.31 E83.8041
G1 X39.17 Y123.38 E85.2240
G1 X39.17 Y122.81 E85.2514
G1 X60.68 Y144.31 E86.7100
G1 X61.24 Y144.31 E86.7368
G1 X39.17 Y122.24 E88.2338
G1 X39.17 Y121.68 E88.2606
G1 X61.81 Y144.31 E89.7959
G1 X62.37 Y144.31 E89.8228
G1 X39.17 Y121.11 E91.3964
G1 X39.17 Y120.55 E91.4232
G1 X62.94 Y144.31 E93.0351
G1 X63.50 Y144.31 E93.0620
G1 X39.17 Y119.98 E94.7122
G1 X39.17 Y119.42 E94.7391
G1 X64.07 Y144.31 E96.4277
G1 X64.64 Y144.31 E96.4550
G1 X39.17 Y118.85 E98.1822
G1 X39.17 Y118.28 E98.2096
G1 X65.20 Y144.31 E99.9751
G1 X65.77 Y144.31 E100.0024
G1 X39.17 Y117.72 E101.8063
G1 X39.17 Y117.15 E101.8336
G1 X66.33 Y144.31 E103.6758
G1 X66.90 Y144.31 E103.7032
G1 X39.17 Y116.59 E105.5837
G1 X39.17 Y116.02 E105.6110
G1 X67.46 Y144.31 E107.5298
G1 X68.03 Y144.31 E107.5572
G1 X39.17 Y115.46 E109.5143
G1 X39.17 Y114.89 E109.5417
G1 X68.60 Y144.31 E111.5375
G1 X69.16 Y144.31 E111.5644
G1 X39.17 Y114.32 E113.5985
G1 X39.17 Y113.76 E113.6253
G1 X69.73 Y144.31 E115.6978
G1 X70.29 Y144.31 E115.7247
G1 X39.17 Y113.19 E117.8354
G1 X39.17 Y112.63 E117.8623
G1 X70.86 Y144.31 E120.0114
G1 X71.42 Y144.31 E120.0383
G1 X39.17 Y112.06 E122.2257
G1 X39.17 Y111.50 E122.2526
G1 X71.99 Y144.31 E124.4783
G1 X72.56 Y144.31 E124.5057
G1 X39.17 Y110.93 E126.7701
G1 X39.17 Y110.36 E126.7974
G1 X73.12 Y144.31 E129.1001
G1 X73.69 Y144.31 E129.1275
G1 X39.17 Y109.80 E131.4685
G1 X39.17 Y109.23 E131.4959
G1 X74.25 Y144.31 E133.8753
G1 X74.82 Y144.31 E133.9026
G1 X39.17 Y108.67 E136.3203
G1 X39.17 Y108.10 E136.3476
G1 X75.38 Y144.31 E138.8037
G1 X75.95 Y144.31 E138.8310
G1 X39.17 Y107.54 E141.3254
G1 X39.17 Y106.97 E141.3527
G1 X76.52 Y144.31 E143.8857
G1 X77.08 Y144.31 E143.9126
G1 X39.17 Y106.40 E146.4839
G1 X39.17 Y105.84 E146.5108
G1 X77.65 Y144.31 E149.1204
G1 X78.21 Y144.31 E149.1473
G1 X39.17 Y105.27 E151.7953
G1 X39.17 Y104.71 E151.8221
G1 X78.78 Y144.31 E154.5084
G1 X79.34 Y144.31 E154.5353
G1 X39.17 Y104.14 E157.2599
G1 X39.17 Y103.58 E157.2867
G1 X79.91 Y144.31 E160.0497
G1 X80.48 Y144.31 E160.0770
G1 X39.17 Y103.01 E162.8787
G1 X39.17 Y102.44 E162.9060
G1 X81.04 Y144.31 E165.7459
G1 X81.61 Y144.31 E165.7733
G1 X39.17 Y101.88 E168.6515
G1 X39.17 Y101.31 E168.6789
G1 X82.17 Y144.31 E171.5954
G1 X82.74 Y144.31 E171.6228
G1 X39.17 Y100.75 E174.5777
G1 X39.17 Y100.18 E174.6050
G1 X83.30 Y144.31 E177.5982
G1 X83.87 Y144.31 E177.6256
G1 X39.17 Y99.62 E180.6571
G1 X39.17 Y99.05 E180.6845
G1 X84.43 Y144.31 E183.7543
G1 X85.00 Y144.31 E183.7817
G1 X39.17 Y98.49 E186.8899
G1 X39.17 Y97.92 E186.9172
G1 X85.57 Y144.31 E190.0640
G1 X86.13 Y144.31 E190.0909
G1 X39.17 Y97.35 E193.2761
G1 X39.17 Y96.79 E193.3029
G1 X86.70 Y144.31 E196.5264
G1 X87.26 Y144.31 E196.5533
G1 X39.17 Y96.22 E199.8151
G1 X39.17 Y95.66 E199.8419
G1 X87.83 Y144.31 E203.1421
G1 X88.39 Y144.31 E203.1689
G1 X39.17 Y95.09 E206.5074
G1 X39.17 Y94.53 E206.5343
G1 X88.96 Y144.31 E209.9110
G1 X89.53 Y144.31 E209.9384
G1 X39.17 Y93.96 E213.3538
G1 X39.17 Y93.39 E213.3812
G1 X90.09 Y144.31 E216.8349
G1 X90.66 Y144.31 E216.8623
G1 X39.17 Y92.83 E220.3544
G1 X39.17 Y92.26 E220.3817
G1 X91.22 Y144.31 E223.9121
G1 X91.79 Y144.31 E223.9395
G1 X39.17 Y91.70 E227.5082
G1 X39.17 Y91.13 E227.5356
G1 X92.35 Y144.31 E231.1426
G1 X92.92 Y144.31 E231.1699
G1 X39.17 Y90.57 E234.8153
G1 X39.17 Y90.00 E234.8426
G1 X93.49 Y144.31 E238.5267
G1 X94.05 Y144.31 E238.5535
G1 X39.17 Y89.43 E242.2759
G1 X39.17 Y88.87 E242.3028
G1 X94.62 Y144.31 E246.0634
G1 X95.18 Y144.31 E246.0903
G1 X39.17 Y88.30 E249.8893
G1 X39.17 Y87.74 E249.9162
G1 X95.75 Y144.31 E253.7535
G1 X96.31 Y144.31 E253.7804
G1 X39.17 Y87.17 E257.6560
G1 X39.17 Y86.61 E257.6829
G1 X96.88 Y144.31 E261.5968
G1 X97.45 Y144.31 E261.6242
G1 X39.17 Y86.04 E265.5768
G1 X39.17 Y85.47 E265.6042
G1 X98.01 Y144.31 E269.5951
G1 X98.58 Y144.31 E269.6225
G1 X39.17 Y84.91 E273.6518
G1 X39.17 Y84.34 E273.6791
G1 X99.14 Y144.31 E277.7467
G1 X99.71 Y144.31 E277.7740
G1 X39.17 Y83.78 E281.8800
G1 X39.17 Y83.21 E281.9073
G1 X100.27 Y144.31 E286.0516
G1 X100.84 Y144.31 E286.0789
G1 X39.17 Y82.65 E290.2615
G1 X39.17 Y82.08 E290.2888
G1 X101.41 Y144.31 E294.5101
G1 X101.97 Y144.31 E294.5369
G1 X39.17 Y81.51 E298.7965
G1 X39.17 Y80.95 E298.8233
G1 X102.54 Y144.31 E303.1212
G1 X103.10 Y144.31 E303.1480
G1 X39.17 Y80.38 E307.4842
G1 X39.17 Y79.82 E307.5110
G1 X103.67 Y144.31 E311.8856
G1 X104.23 Y144.31 E311.9124
G1 X39.17 Y79.25 E316.3253
G1 X39.17 Y78.69 E316.3521
G1 X104.80 Y144.31 E320.8033
G1 X105.37 Y144.31 E320.8306
G1 X39.17 Y78.12 E325.3204
G1 X39.17 Y77.55 E325.3478
G1 X105.93 Y144.31 E329.8759
G1 X106.50 Y144.31 E329.9033
G1 X39.17 Y76.99 E334.4697
G1 X39.17 Y76.42 E334.4971
G1 X107.06 Y144.31 E339.1018
G1 X107.63 Y144.31 E339.1292
G1 X39.17 Y75.86 E343.7723
G1 X39.17 Y75.69 E343.7805
G1 X39.57 Y75.69 E343.7997
G1 X108.19 Y144.31 E348.4540
G1 X108.76 Y144.31 E348.4813
G1 X40.13 Y75.69 E353.1360
G1 X40.70 Y75.69 E353.1633
G1 X109.33 Y144.31 E357.8180
G1 X109.89 Y144.31 E357.8448
G1 X41.26 Y75.69 E362.4995
G1 X41.83 Y75.69 E362.5268
G1 X110.46 Y144.31 E367.1815
G1 X111.02 Y144.31 E367.2083
G1 X42.39 Y75.69 E371.8630
G1 X42.96 Y75.69 E371.8903
G1 X111.59 Y144.31 E376.5450
G1 X112.15 Y144.31 E376.5718
G1 X43.53 Y75.69 E381.2261
G1 X44.09 Y75.69 E381.2530
G1 X112.72 Y144.31 E385.9076
G1 X113.29 Y144.31 E385.9350
G1 X44.66 Y75.69 E390.5896
G1 X45.22 Y75.69 E390.6165
G1 X113.85 Y144.31 E395.2711
G1 X114.42 Y144.31 E395.2985
G1 X45.79 Y75.69 E399.9531
G1 X46.35 Y75.69 E399.9800
G1 X114.98 Y144.31 E404.6346
G1 X115.55 Y144.31 E404.6620
G1 X46.92 Y75.69 E409.3166
G1 X47.49 Y75.69 E409.3440
G1 X116.11 Y144.31 E413.9983
G1 X116.68 Y144.31 E414.0256
G1 X48.05 Y75.69 E418.6803
G1 X48.62 Y75.69 E418.7076
G1 X117.25 Y144.31 E423.3623
G1 X117.81 Y144.31 E423.3892
G1 X49.18 Y75.69 E428.0438
G1 X49.75 Y75.69 E428.0712
G1 X118.38 Y144.31 E432.7258
G1 X118.94 Y144.31 E432.7526
G1 X50.31 Y75.69 E437.4073
G1 X50.88 Y75.69 E437.4347
G1 X119.51 Y144.31 E442.0893
G1 X120.07 Y144.31 E442.1161
G1 X51.45 Y75.69 E446.7705
G1 X52.01 Y75.69 E446.7973
G1 X120.64 Y144.31 E451.4520
G1 X121.21 Y144.31 E451.4793
G1 X52.58 Y75.69 E456.1340
G1 X53.14 Y75.69 E456.1608
G1 X121.77 Y144.31 E460.8155
G1 X122.34 Y144.31 E460.8428
G1 X53.71 Y75.69 E465.4975
G1 X54.27 Y75.69 E465.5243
G1 X122.90 Y144.31 E470.1789
G1 X123.47 Y144.31 E470.2063
G1 X54.84 Y75.69 E474.8610
G1 X55.41 Y75.69 E474.8883
G1 X124.03 Y144.31 E479.5426
G1 X124.60 Y144.31 E479.5700
G1 X55.97 Y75.69 E484.2246
G1 X56.54 Y75.69 E484.2519
G1 X125.16 Y144.31 E488.9063
G1 X125.73 Y144.31 E488.9336
G1 X57.10 Y75.69 E493.5883
G1 X57.67 Y75.69 E493.6156
G1 X126.30 Y144.31 E498.2703
G1 X126.86 Y144.31 E498.2971
G1 X58.23 Y75.69 E502.9518
G1 X58.80 Y75.69 E502.9791
G1 X127.43 Y144.31 E507.6338
G1 X127.99 Y144.31 E507.6606
G1 X59.37 Y75.69 E512.3149
G1 X59.93 Y75.69 E512.3418
G1 X128.56 Y144.31 E516.9964
G1 X129.12 Y144.31 E517.0233
G1 X60.50 Y75.69 E521.6776
G1 X61.06 Y75.69 E521.7044
G1 X129.69 Y144.31 E526.3591
G1 X130.26 Y144.31 E526.3864
G1 X61.63 Y75.69 E531.0410
G1 X62.19 Y75.69 E531.0679
G1 X130.82 Y144.31 E535.7225
G1 X131.39 Y144.31 E535.7498
G1 X62.76 Y75.69 E540.4044
G1 X63.32 Y75.69 E540.4314
G1 X131.95 Y144.31 E545.0860
G1 X132.52 Y144.31 E545.1132
G1 X63.89 Y75.69 E549.7679
G1 X64.46 Y75.69 E549.7952
G1 X133.08 Y144.31 E554.4495
G1 X133.65 Y144.31 E554.4768
G1 X65.02 Y75.69 E559.1314
G1 X65.59 Y75.69 E559.1588
G1 X134.22 Y144.31 E563.8134
G1 X134.78 Y144.31 E563.8403
G1 X66.15 Y75.69 E568.4949
G1 X66.72 Y75.69 E568.5222
G1 X135.35 Y144.31 E573.1768
G1 X135.91 Y144.31 E573.2037
G1 X67.28 Y75.69 E577.8584
G1 X67.85 Y75.69 E577.8856
G1 X136.48 Y144.31 E582.5402
G1 X137.04 Y144.31 E582.5672
G1 X68.42 Y75.69 E587.2215
G1 X68.98 Y75.69 E587.2483
G1 X137.61 Y144.31 E591.9030
G1 X138.18 Y144.31 E591.9303
G1 X69.55 Y75.69 E596.5849
G1 X70.11 Y75.69 E596.6118
G1 X138.74 Y144.31 E601.2664
G1 X139.31 Y144.31 E601.2937
G1 X70.68 Y75.69 E605.9483
G1 X71.24 Y75.69 E605.9752
G1 X139.87 Y144.31 E610.6298
G1 X140.44 Y144.31 E610.6571
G1 X71.81 Y75.69 E615.3118
G1 X72.38 Y75.69 E615.3391
G1 X141.00 Y144.31 E619.9934
G1 X141.57 Y144.31 E620.0207
G1 X72.94 Y75.69 E624.6753
G1 X73.51 Y75.69 E624.7027
G1 X142.13 Y144.31 E629.3570
G1 X142.70 Y144.31 E629.3843
G1 X74.07 Y75.69 E634.0389
G1 X74.64 Y75.69 E634.0662
G1 X143.27 Y144.31 E638.7209
G1 X143.83 Y144.31 E638.7477
G1 X75.20 Y75.69 E643.4023
G1 X75.77 Y75.69 E643.4297
G1 X144.40 Y144.31 E648.0843
G1 X144.96 Y144.31 E648.1112
G1 X76.34 Y75.69 E652.7655
G1 X76.90 Y75.69 E652.7923
G1 X145.53 Y144.31 E657.4470
G1 X146.10 Y144.31 E657.4743
G1 X77.47 Y75.69 E662.1289
G1 X78.03 Y75.69 E662.1558
G1 X146.66 Y144.31 E666.8104
G1 X147.23 Y144.31 E666.8377
G1 X78.60 Y75.69 E671.4923
G1 X79.16 Y75.69 E671.5192
G1 X147.79 Y144.31 E676.1739
G1 X148.36 Y144.31 E676.2011
G1 X79.73 Y75.69 E680.8558
G1 X80.30 Y75.69 E680.8831
G1 X148.92 Y144.31 E685.5374
G1 X149.49 Y144.31 E685.5647
G1 X80.86 Y75.69 E690.2193
G1 X81.43 Y75.69 E690.2467
G1 X150.05 Y144.31 E694.9010
G1 X150.62 Y144.31 E694.9282
G1 X81.99 Y75.69 E699.5829
G1 X82.56 Y75.69 E699.6102
G1 X151.19 Y144.31 E704.2649
G1 X151.75 Y144.31 E704.2917
G1 X83.12 Y75.69 E708.9463
G1 X83.69 Y75.69 E708.9737
G1 X152.32 Y144.31 E713.6283
G1 X152.88 Y144.31 E713.6552
G1 X84.26 Y75.69 E718.3095
G1 X84.82 Y75.69 E718.3363
G1 X153.45 Y144.31 E722.9910
G1 X154.01 Y144.31 E723.0178
G1 X85.39 Y75.69 E727.6721
G1 X85.95 Y75.69 E727.6990
G1 X154.58 Y144.31 E732.3537
G1 X155.15 Y144.31 E732.3809
G1 X86.52 Y75.69 E737.0356
G1 X87.08 Y75.69 E737.0625
G1 X155.71 Y144.31 E741.7171
G1 X156.28 Y144.31 E741.7444
G1 X87.65 Y75.69 E746.3990
G1 X88.22 Y75.69 E746.4264
G1 X156.84 Y144.31 E751.0807
G1 X157.41 Y144.31 E751.1079
G1 X88.78 Y75.69 E755.7626
G1 X89.35 Y75.69 E755.7899
G1 X157.97 Y144.31 E760.4442
G1 X158.54 Y144.31 E760.4715
G1 X89.91 Y75.69 E765.1261
G1 X90.48 Y75.69 E765.1535
G1 X159.11 Y144.31 E769.8081
G1 X159.67 Y144.31 E769.8350
G1 X91.04 Y75.69 E774.4896
G1 X91.61 Y75.69 E774.5169
G1 X160.24 Y144.31 E779.1715
G1 X160.80 Y144.31 E779.1984
G1 X92.17 Y75.69 E783.8531
G1 X92.74 Y75.69 E783.8803
G1 X161.37 Y144.31 E788.5349
G1 X161.93 Y144.31 E788.5619
G1 X93.31 Y75.69 E793.2162
G1 X93.87 Y75.69 E793.2430
G1 X162.50 Y144.31 E797.8977
G1 X163.07 Y144.31 E797.9250
G1 X94.44 Y75.69 E802.5796
G1 X95.00 Y75.69 E802.6065
G1 X163.63 Y144.31 E807.2611
G1 X164.20 Y144.31 E807.2884
G1 X95.57 Y75.69 E811.9430
G1 X96.13 Y75.69 E811.9699
G1 X164.76 Y144.31 E816.6245
G1 X165.33 Y144.31 E816.6518
G1 X96.70 Y75.69 E821.3065
G1 X97.27 Y75.69 E821.3338
G1 X165.89 Y144.31 E825.9881
G1 X166.46 Y144.31 E826.0154
G1 X97.83 Y75.69 E830.6700
G1 X98.40 Y75.69 E830.6974
G1 X167.03 Y144.31 E835.3520
G1 X167.59 Y144.31 E835.3788
G1 X98.96 Y75.69 E840.0334
G1 X99.53 Y75.69 E840.0607
G1 X168.16 Y144.31 E844.7154
G1 X168.72 Y144.31 E844.7422
G1 X100.09 Y75.69 E849.3969
G1 X100.66 Y75.69 E849.4242
G1 X169.29 Y144.31 E854.0788
G1 X169.85 Y144.31 E854.1057
G1 X101.23 Y75.69 E858.7600
G1 X101.79 Y75.69 E858.7869
G1 X170.42 Y144.31 E863.4415
G1 X170.99 Y144.31 E863.4688
G1 X102.36 Y75.69 E868.1234
G1 X102.92 Y75.69 E868.1503
G1 X171.55 Y144.31 E872.8049
G1 X172.12 Y144.31 E872.8323
G1 X103.49 Y75.69 E877.4869
G1 X104.05 Y75.69 E877.5137
G1 X172.68 Y144.31 E882.1684
G1 X173.25 Y144.31 E882.1957
G1 X104.62 Y75.69 E886.8503
G1 X105.19 Y75.69 E886.8776
G1 X173.81 Y144.31 E891.5319
G1 X174.38 Y144.31 E891.5593
G1 X105.75 Y75.69 E896.2139
G1 X106.32 Y75.69 E896.2412
G1 X174.95 Y144.31 E900.8958
G1 X175.51 Y144.31 E900.9227
G1 X106.88 Y75.69 E905.5773
G1 X107.45 Y75.69 E905.6046
G1 X176.08 Y144.31 E910.2593
G1 X176.64 Y144.31 E910.2861
G1 X108.01 Y75.69 E914.9407
G1 X108.58 Y75.69 E914.9681
G1 X177.21 Y144.31 E919.6227
G1 X177.77 Y144.31 E919.6495
G1 X109.15 Y75.69 E924.3039
G1 X109.71 Y75.69 E924.3307
G1 X178.34 Y144.31 E928.9854
G1 X178.91 Y144.31 E929.0127
G1 X110.28 Y75.69 E933.6673
G1 X110.84 Y75.69 E933.6942
G1 X179.47 Y144.31 E938.3488
G1 X180.04 Y144.31 E938.3761
G1 X111.41 Y75.69 E943.0308
G1 X111.97 Y75.69 E943.0576
G1 X180.60 Y144.31 E947.7123
G1 X180.83 Y144.31 E947.7233
G1 X180.82 Y143.97 E947.7396
G1 X112.54 Y75.69 E952.3708
G1 X113.11 Y75.69 E952.3981
G1 X180.82 Y143.40 E956.9907
G1 X180.82 Y142.84 E957.0176
G1 X113.67 Y75.69 E961.5722
G1 X114.24 Y75.69 E961.5995
G1 X180.82 Y142.27 E966.1154
G1 X180.82 Y141.71 E966.1423
